!!!!SEGMENT: pl-kk--kk-i-2--037_anonim--gaudete-iusti.krn
!!!cenid: 16xx:1657
!!!COM: Anonim
!!!COM-rismID: pe30004985
!!!CDT:
!!!CNT:
!!!OTL: Gaudete iusti
!!!PDT:
!!!AGN: Sacred
!!!SMS-siglum: PL-Kk
!!!SMS-shelfmark: Kk.I.2
!!!SMS-shelfwork: 037 W
!!!NIFC-rismSourceID: 300258055
!!!NIFC-islandoraID: pl-kk:750
!!!URL-pdf-islandora: https://repozytorium.nifc.pl/islandora/object/pl-kk%3A750/datastream/PDF/view
!!!URL-scan: https://polish.musicsources.pl/pl/lokalizacje/galeria/rekopisy/5828 @EN{Scan on Polish Music Sources Website} @PL{Skany w portalu Dziedzictwo Muzyki Polskiej w otwartym dostępie}
!!!ONB-nifc: skany: C: 0059-0060; A: 0162; T: 0264; B: 0362;
!!!AIN: 1 alto 1 bass 1 soprn 1 tenor
!!!key: d:dor
**kern	**text	**kern	**text	**kern	**text	**kern	**text
*part4	*part4	*part3	*part3	*part2	*part2	*part1	*part1
*staff4	*staff4	*staff3	*staff3	*staff2	*staff2	*staff1	*staff1
*I"BASVS	*	*I"TENOR	*	*I"ALTVS	*	*I"DISCANTVS	*
*I'B	*	*I'T	*	*I'A	*	*I'S	*
*ICvox	*	*ICvox	*	*ICvox	*	*ICvox	*
*Ibass	*	*Itenor	*	*Ialto	*	*Isoprn	*
*clefF4	*	*clefC4	*	*clefC4	*	*clefC2	*
*d:dor	*	*d:dor	*	*d:dor	*	*d:dor	*
*k[]	*	*k[]	*	*k[]	*	*k[]	*
*M2/1	*	*M2/1	*	*M2/1	*	*M2/1	*
*met(c|)	*	*met(c|)	*	*met(c|)	*	*met(c|)	*
=1	=1	=1	=1	=1	=1	=1	=1
*xywh-#362:7803,1563,6304,1090	*	*xywh-#264:1873,3877,5822,1410	*	*xywh-#162:7905,2042,6165,1142	*	*xywh-#59:7949,2905,6452,1030	*
1AA	Gau-	0r	.	0r	.	0r	.
1GG	.	.	.	.	.	.	.
=2	=2	=2	=2	=2	=2	=2	=2
*lig	*	*	*	*	*	*	*
!LO:N:vis=0	!	!	!	!	!	!	!
1AA	-de-	0r	.	1r	.	0r	.
!LO:N:vis=0	!	!	!	!	!	!	!
1C	.	.	.	1A	Gau-	.	.
*Xlig	*	*	*	*	*	*	*
=3	=3	=3	=3	=3	=3	=3	=3
1BB	.	1D	Gau-	1G	-de-	0r	.
*	*	*	*	*lig	*	*	*
!	!	!	!	!LO:N:vis=0	!	!	!
0AA	-te	0C	-de-	1A	.	.	.
=4	=4	=4	=4	=4	=4	=4	=4
!	!	!	!	!	!	!LO:TX:t=P:problem=kreska pseudotaktowa	!
!	!	!	!	!LO:N:vis=0	!	!	!
.	.	.	.	1c	-te	1r	.
*	*	*	*	*Xlig	*	*	*
1r	.	2.D/	.	1B	.	1d	Gau-
.	.	4E/	.	.	.	.	.
=5	=5	=5	=5	=5	=5	=5	=5
!	!	!	!	!	!	!LO:TX:t=P:problem=kreska pseudotaktowa	!
!	!	!LO:N:vis=0	!	!LO:N:vis=0	!	!	!
0r	.	1F	.	1A	.	0c	-de-
.	.	1E	.	1G	.	.	.
=6	=6	=6	=6	=6	=6	=6	=6
*	*	*	*	*	*	*lig	*
!	!	!	!	!	!	!LO:N:vis=0	!
0r	.	0D	.	2.F/	.	1d	.
.	.	.	.	4G/	.	.	.
!	!	!	!	!	!	!LO:N:vis=0	!
.	.	.	.	2A/	.	1f	.
.	.	.	.	2B/	.	.	.
*	*	*	*	*	*	*Xlig	*
=7	=7	=7	=7	=7	=7	=7	=7
1r	.	1C	.	1c	iu-	1e	.
!	!	!	!	!	!	!LO:TX:t=P:problem=kreska pseudotaktowa	!
2r	.	1D	.	1.A	-ſti	1d	.
2.D/	iu-	.	.	.	.	.	.
=8	=8	=8	=8	=8	=8	=8	=8
*	*	*	*	*	*	*lig	*
!	!	!	!	!	!	!LO:N:vis=0	!
.	.	0F	-te	.	.	1d	-te
4C/	.	.	.	.	.	.	.
4BB/	.	.	.	1d	.	.	.
4AA/	-ſti	.	.	.	.	.	.
!	!	!	!	!	!	!LO:N:vis=0	!
1BB-X	.	.	.	.	.	1f	.
.	.	.	.	4c/	.	.	.
.	.	.	.	4B/	.	.	.
*	*	*	*	*	*	*Xlig	*
=9	=9	=9	=9	=9	=9	=9	=9
2r	.	1r	.	1A	.	2f/	.
2.F/	.	.	.	.	.	2.d/	iuſ-
.	.	2.A/	iuſ-	1d	.	.	.
4E/	.	.	.	.	.	4e/	-ti
4D/	.	.	.	.	.	4f/	.
!	!	!	!	!	!	!LO:TX:t=P:problem=kreska pseudotaktowa	!
4C/	.	4G/	-ti	.	.	4g/	.
=10	=10	=10	=10	=10	=10	=10	=10
2D/	.	2F/	.	1r	.	2a\	.
2E/	.	2G/	.	.	.	2g/	.
2D/	.	2A/	.	2r	.	2f/	.
1E	.	2c\	.	2.e/	.	1g	.
=11	=11	=11	=11	=11	=11	=11	=11
.	.	2B/	.	.	.	.	.
.	.	.	.	4d/	ju-	.	.
*	*	*custos:B-	*	*	*	*	*
1F	.	1A	in	4c/	.	1a	.
*	*	*	*	*custos:d	*	*	*
.	.	.	.	4B/	.	.	.
!	!	!	!	!LO:LB:g=original	!	!	!
*	*	*	*	*xywh-#162:7912,2963,6428,983	*	*	*
.	.	.	.	1d	-ſti	.	.
*custos:D	*	*	*	*	*	*	*
!	!	!LO:LB:g=original	!	!	!	!	!
*	*	*xywh-#264:7790,539,6784,1002	*	*	*	*	*
2G\	.	2B-X/	do-	.	.	1g	.
!LO:LB:g=original	!	!	!	!	!	!	!
=12	=12	=12	=12	=12	=12	=12	=12
*xywh-#362:7786,2279,6431,1084	*	*	*	*	*	*	*
1D	.	1A	-mi-	2.d\	in	.	.
!	!	!	!	!	!	!LO:TX:t=P:problem=kreska pseudotaktowa	!
.	.	.	.	.	.	2f/	.
.	.	.	.	4c/	.	.	.
1GG	.	1G	-no	1B	do-	1g	.
=13	=13	=13	=13	=13	=13	=13	=13
*	*	*	*	*	*	*custos:f	*
!	!	!	!	!	!	!LO:TX:t=P:problem=kreska pseudotaktowa	!
0D	in	2.F/	.	2.A/	-mi-	1r	.
.	.	4G/	In	4G/	-no	.	.
!	!	!	!	!	!	!LO:LB:g=original	!
*	*	*	*	*	*	*xywh-#59:7920,3640,6510,1562	*
*	*	*	*	*	*	*lig	*
!	!	!	!	!	!	!LO:N:vis=0	!
.	.	2A/	.	2F/	.	1f	in
.	.	2B/	.	4E/	.	.	.
.	.	.	.	4D/	.	.	.
=14	=14	=14	=14	=14	=14	=14	=14
*lig	*	*	*	*	*	*	*
!LO:N:vis=0	!	!	!	!	!	!	!
!	!	!	!	!	!	!LO:N:vis=0	!
1E	do-	1G	do-	1C	.	1g	.
!LO:N:vis=0	!	!	!	!	!	!	!
!	!	!	!	!	!	!LO:N:vis=0	!
1.F	.	4F/	.	2r	.	0a	.
.	.	4G/	.	.	.	.	.
.	.	4A/	.	2.c\	.	.	.
.	.	4B/	.	.	.	.	.
*Xlig	*	*	*	*	*	*	*
=15	=15	=15	=15	=15	=15	=15	=15
.	.	1c	.	.	.	.	.
.	.	.	.	4B/	.	.	.
2E/	.	.	.	4A/	.	.	.
.	.	.	.	4G/	.	.	.
*	*	*	*	*	*	*Xlig	*
*	*	*	*	*	*	*lig	*
!	!	!	!	!	!	!LO:N:vis=0	!
1D	-mi-	1d	.	1F	.	1a	do-
=16	=16	=16	=16	=16	=16	=16	=16
!	!	!	!	!	!	!LO:N:vis=0	!
1E	.	2B/	.	1G	.	1g	.
.	.	2G/	.	.	.	.	.
*	*	*	*	*	*	*Xlig	*
!	!	!	!	!	!	!LO:TX:t=P:problem=kreska pseudotaktowa	!
1D	.	1A	.	2r	.	1f	-mi-
.	.	.	.	1d	in	.	.
=17	=17	=17	=17	=17	=17	=17	=17
2GG/	.	2B/	.	.	.	2d/	.
2C/	.	2G/	.	1c	do-	1e	.
2AA/	.	2A/	.	.	.	.	.
2D/	.	2F/	-mi-	2B\	-mi-	1f	.
=18	=18	=18	=18	=18	=18	=18	=18
1C	-no	1G	-no	1c	-no	.	.
!	!	!	!	!	!	!LO:TX:t=P:problem=kreska pseudotaktowa	!
.	.	.	.	.	.	2e/	.
!	!	!	!	!	!	!LO:TX:t=P:problem=kreska pseudotaktowa	!
1FF	.	1F	.	1A	.	1f	-no
=19	=19	=19	=19	=19	=19	=19	=19
*	*	*	*	*	*	*lig	*
!	!	!	!	!	!	!LO:N:vis=0	!
2r	.	2r	.	1A	.	1f	Al-
2F\	Al-	2A/	Al-	.	.	.	.
!	!	!	!	!	!	!LO:N:vis=0	!
1E	-le-	0.G	-le-	0B	Al-	1g	-le-
*	*	*	*	*	*	*Xlig	*
=20	=20	=20	=20	=20	=20	=20	=20
*lig	*	*	*	*	*	*lig	*
!LO:N:vis=0	!	!	!	!	!	!LO:N:vis=0	!
1E	.	.	.	.	.	1g	-lu-
!	!	!	!	!	!	!LO:TX:t=P:problem=kreska pseudotaktowa	!
!LO:N:vis=0	!	!	!	!	!	!LO:N:vis=0	!
1C	.	.	.	2.c/	-le-	1e	.
.	.	.	.	4B/	.	.	.
*Xlig	*	*	*	*	*	*Xlig	*
=21	=21	=21	=21	=21	=21	=21	=21
2D/	-lu-	2F/	.	4A/	.	2f\	.
.	.	.	.	4G/	.	.	.
1C	.	1G	.	1c	.	1e	.
*	*	*custos:E	*	*custos:A	*	*	*
2D/	-ia	2F/	.	2B/	.	1d	.
!	!	!	!	!LO:LB:g=original	!	!	!
!	!	!LO:LB:g=original	!	!	!	!	!
=22	=22	=22	=22	=22	=22	=22	=22
*	*	*xywh-#264:7868,1355,6528,1002	*	*xywh-#162:7933,3718,6442,1614	*	*	*
1AA	.	1E	-lu-	2.A/	-lu-	.	.
!	!	!	!	!	!	!LO:TX:t=P:problem=kreska pseudotaktowa	!
.	.	.	.	.	.	2c/	.
.	.	.	.	4G/	-ia	.	.
!	!	!	!	!	!	!LO:TX:t=P:problem=kreska pseudotaktowa	!
2r	.	1D	-ia	2F/	.	1d	-ia
1A	Rec-	.	.	2.D/	Re-	.	.
=23	=23	=23	=23	=23	=23	=23	=23
.	.	1r	.	.	.	1r	.
.	.	.	.	4E/	-ctos	.	.
4G\	.	.	.	2F/	.	.	.
4F\	.	.	.	.	.	.	.
*custos:F	*	*	*	*	*	*	*
*	*	*lig	*	*	*	*	*
!	!	!LO:N:vis=0	!	!	!	!	!
1E	.	1G	Rec-	4G/	de-	2r	.
.	.	.	.	4A/	.	.	.
.	.	.	.	4B\	-cet	1e	rec-
.	.	.	.	4c\	.	.	.
!LO:LB:g=original	!	!	!	!	!	!	!
=24	=24	=24	=24	=24	=24	=24	=24
*xywh-#362:7774,3104,6437,1020	*	*	*	*	*	*	*
!	!	!LO:N:vis=0	!	!	!	!	!
1F	.	1D	.	1A	.	.	.
.	.	.	.	.	.	2d/	-tos
!	!	!	!	!	!	!LO:TX:t=P:problem=kreska pseudotaktowa	!
*	*	*Xlig	*	*	*	*	*
*	*	*lig	*	*	*	*	*
!	!	!LO:N:vis=0	!	!	!	!	!
1E	-tos	1G	.	2B\	.	1e	de-
.	.	.	.	2c\	.	.	.
=25	=25	=25	=25	=25	=25	=25	=25
!	!	!LO:N:vis=0	!	!	!	!	!
1D	de-	1A	.	1d	.	1f	.
*	*	*Xlig	*	*	*	*	*
1E	.	1G	.	1B	.	0e	-cet
=26	=26	=26	=26	=26	=26	=26	=26
!	!	!	!	!	!	!LO:TX:t=P:problem=kreska pseudotaktowa	!
2.AA/	.	2.c\	.	1A	.	.	.
4BB/	.	4B\	.	.	.	.	.
4C/	.	2A/	.	1r	.	1r	.
4D/	.	.	.	.	.	.	.
2E/	.	2G/	.	.	.	.	.
=27	=27	=27	=27	=27	=27	=27	=27
1D	.	1A	.	1.d	co-	0r	.
2BB/	.	1G	-tos	.	.	.	.
2C/	.	.	.	2e\	-lau-	.	.
=28	=28	=28	=28	=28	=28	=28	=28
*	*	*lig	*	*	*	*	*
!	!	!LO:N:vis=0	!	!	!	!	!
1AA	.	1F	de-	1c	.	0r	.
!	!	!LO:N:vis=0	!	!	!	!	!
1GG	-cet	1G	.	1B	-da-	.	.
*	*	*Xlig	*	*	*	*	*
=29	=29	=29	=29	=29	=29	=29	=29
!	!	!	!	!	!	!LO:TX:t=P:problem=kreska pseudotaktowa	!
1D	co-	1F	.	1A	-ci-	1r	.
2C/	-lau-	2E/	.	1B	-o	2r	.
.	.	.	.	.	.	.	.
2D/	.	2F/	.	.	.	1f	de-
=30	=30	=30	=30	=30	=30	=30	=30
1C	.	1G	.	1c	.	.	.
.	.	.	.	.	.	2e/	-cet
0D	-da-	1F	-cet	1A	.	0f	.
=31	=31	=31	=31	=31	=31	=31	=31
.	.	2r	.	1B	.	.	.
.	.	2F/	co-	.	.	.	.
*	*	*lig	*	*lig	*	*lig	*
!	!	!LO:N:vis=0	!	!	!	!	!
!	!	!	!	!LO:N:vis=0.	!	!LO:N:vis=0	!
1C	-ci-	1G	-lau-	1.c	.	1e	.
=32	=32	=32	=32	=32	=32	=32	=32
!	!	!LO:N:vis=0	!	!	!	!LO:TX:t=P:problem=kreska pseudotaktowa	!
!	!	!	!	!	!	!LO:N:vis=0	!
1AA	-o	1A	.	.	.	1c	.
!	!	!	!	!LO:N:vis=0	!	!	!
.	.	.	.	1A	.	.	.
*lig	*	*Xlig	*	*Xlig	*	*Xlig	*
*	*	*	*	*	*	*custos:d	*
!LO:N:vis=0	!	!	!	!	!	!	!
1BB	.	2F/	-da-	.	.	2r	.
!	!	!	!	!	!	!LO:LB:g=original	!
*	*	*	*	*	*	*xywh-#60:1431,523,6418,1157	*
.	.	2D/	.	2G/	.	1d	co-
=33	=33	=33	=33	=33	=33	=33	=33
!LO:N:vis=0	!	!	!	!	!	!	!
1AA	.	1E	.	1A	.	.	.
.	.	.	.	.	.	2c/	-lau-
*Xlig	*	*lig	*	*	*	*	*
!	!	!LO:N:vis=0	!	!	!	!	!
2r	.	1D	-ci-	1r	.	1d	-da-
1A	Al-	.	.	.	.	.	.
=34	=34	=34	=34	=34	=34	=34	=34
!	!	!LO:N:vis=0	!	!	!	!	!
.	.	1E	.	0r	.	1g	-ci-
2G\	-le-	.	.	.	.	.	.
*	*	*Xlig	*	*	*	*	*
1A	.	1D	-o	.	.	1f	-o
=35	=35	=35	=35	=35	=35	=35	=35
*	*	*custos:D	*	*	*	*	*
1.D	.	2r	.	0r	.	2r	.
!	!	!LO:LB:g=original	!	!	!	!	!
*	*	*xywh-#264:7806,2150,6486,961	*	*	*	*	*
.	.	2D/	A-	.	.	2.f/	Al-
*	*	*lig	*	*	*	*	*
!	!	!LO:N:vis=0	!	!	!	!	!
.	.	1A	-lle	.	.	.	.
.	.	.	.	.	.	4e/	.
2F/	.	.	.	.	.	1d	-le-
=36	=36	=36	=36	=36	=36	=36	=36
*custos:D	*	*	*	*	*	*	*
!	!	!LO:N:vis=0	!	!	!	!	!
1E	.	1G	.	1r	.	.	.
.	.	.	.	.	.	2c/	.
!LO:LB:g=original	!	!	!	!	!	!	!
*xywh-#362:7768,4015,6437,1361	*	*	*	*	*	*	*
*	*	*Xlig	*	*	*	*	*
1D	.	1A	.	2r	.	2.d/	.
.	.	.	.	1d	Al-	.	.
.	.	.	.	.	.	4e/	.
=37	=37	=37	=37	=37	=37	=37	=37
2r	.	2D/	.	.	.	2f/	.
2AA/	.	2E/	.	2c/	-le-	2e/	.
2D/	.	2F/	.	2d/	-lu-	2d/	.
2GG/	.	2G/	.	2B/	.	1d	.
=38	=38	=38	=38	=38	=38	=38	=38
1AA	-lu-	1E	lu-	1A	.	.	.
.	.	.	.	.	.	2c/	-lu-
!LO:N:vis=00	!	!LO:N:vis=00	!	!LO:N:vis=0	!	!LO:N:vis=00	!
1D	-ia	1D	-ia.	1A	-ia	1d\	-ia
==	==	==	==	==	==	==	==
*-	*-	*-	*-	*-	*-	*-	*-
!!!system-decoration: [(s1,s2,s3,s4)]
!!!ENC: Andrzej Gręziak
!!!END: 2022-01-16
!!!ENC: Jan Barakat
!!!END: 2022-01-22
!!!IIIF: https://repozytorium.nifc.pl/islandora/object/pl-kk%3A750/datastream/IIIF/view
!!!ENC-iiif: Natalia Wrzos
!!!END-iiif: 2022-09-03
!!!YEC: Copyright 2022 Narodowy Instytut Fryderyka Chopina (https://polishscores.org)
!!!YEM: Licence CC BY 4.0 (https://creativecommons.org/licenses/by/4.0)
